X:110
T:Reel 110
M:4/4
K:Dmaj
L:1/8
FE|D>C (3CB,A, B,G,F,G,|A,B,CD EGFG|AFBG FAEC|A,B,A,F, D,2CE|A,DCD EFGA|BABc d2AG|FGEF DCB,C|A,DDC D2|FA| (3dcB AF BFdB|AFEF G2FE|DFAc BGBd|cABc d2de| (3fed ec dcBA|FABc d3e| (3fed ec dcBA| (3Bcd ce dBAF|
